Newaita-dark/actions/22/format-break-node.svg

<?xml version="1.0" encoding="UTF-8"?>
<svg xmlns="http://www.w3.org/2000/svg" xmlns:xlink="http://www.w3.org/1999/xlink" width="22pt" height="22pt" viewBox="0 0 22 22" version="1.1">
<g id="surface1">
<path style=" stroke:none;fill-rule:evenodd;fill:rgb(40.000001%,73.333335%,41.568628%);fill-opacity:1;" d="M 14.152344 10.632812 C 14.152344 10.382812 13.949219 10.179688 13.699219 10.179688 L 8.242188 10.179688 C 7.898438 10.179688 7.679688 10.546875 7.84375 10.851562 L 10.570312 14.042969 C 10.855469 14.382812 11.085938 14.382812 11.371094 14.042969 L 14.097656 10.851562 C 14.136719 10.785156 14.152344 10.707031 14.152344 10.632812 Z M 14.152344 10.632812 "/>
<path style=" stroke:none;fill-rule:nonzero;fill:rgb(74.117649%,74.117649%,74.117649%);fill-opacity:1;" d="M 2.273438 14.726562 C 1.519531 14.726562 0.910156 15.332031 0.910156 16.089844 L 0.910156 19.726562 C 0.910156 20.484375 1.519531 21.09375 2.273438 21.09375 L 5.914062 21.09375 C 6.667969 21.09375 7.277344 20.484375 7.277344 19.726562 L 7.277344 16.089844 C 7.277344 15.332031 6.667969 14.726562 5.914062 14.726562 Z M 3.183594 16.089844 L 5.003906 16.089844 C 5.507812 16.089844 5.914062 16.496094 5.914062 17 L 5.914062 18.820312 C 5.914062 19.324219 5.507812 19.726562 5.003906 19.726562 L 3.183594 19.726562 C 2.679688 19.726562 2.273438 19.324219 2.273438 18.820312 L 2.273438 17 C 2.273438 16.496094 2.679688 16.089844 3.183594 16.089844 Z M 3.183594 16.089844 "/>
<path style=" stroke:none;fill-rule:nonzero;fill:rgb(74.117649%,74.117649%,74.117649%);fill-opacity:1;" d="M 15.917969 14.726562 C 15.160156 14.726562 14.554688 15.332031 14.554688 16.089844 L 14.554688 19.726562 C 14.554688 20.484375 15.160156 21.09375 15.917969 21.09375 L 19.554688 21.09375 C 20.3125 21.09375 20.921875 20.484375 20.921875 19.726562 L 20.921875 16.089844 C 20.921875 15.332031 20.3125 14.726562 19.554688 14.726562 Z M 16.828125 16.089844 L 18.648438 16.089844 C 19.152344 16.089844 19.554688 16.496094 19.554688 17 L 19.554688 18.820312 C 19.554688 19.324219 19.152344 19.726562 18.648438 19.726562 L 16.828125 19.726562 C 16.324219 19.726562 15.917969 19.324219 15.917969 18.820312 L 15.917969 17 C 15.917969 16.496094 16.324219 16.089844 16.828125 16.089844 Z M 16.828125 16.089844 "/>
<path style=" stroke:none;fill-rule:nonzero;fill:rgb(74.117649%,74.117649%,74.117649%);fill-opacity:1;" d="M 7.277344 17 L 7.277344 18.820312 L 9.097656 18.820312 L 9.097656 17 Z M 12.734375 17 L 12.734375 18.820312 L 14.554688 18.820312 L 14.554688 17 Z M 12.734375 17 "/>
<path style=" stroke:none;fill-rule:nonzero;fill:rgb(74.117649%,74.117649%,74.117649%);fill-opacity:1;" d="M 9.097656 1.082031 C 8.339844 1.082031 7.730469 1.691406 7.730469 2.445312 L 7.730469 6.085938 C 7.730469 6.839844 8.339844 7.449219 9.097656 7.449219 L 12.734375 7.449219 C 13.488281 7.449219 14.097656 6.839844 14.097656 6.085938 L 14.097656 2.445312 C 14.097656 1.691406 13.488281 1.082031 12.734375 1.082031 Z M 10.003906 2.445312 L 11.824219 2.445312 C 12.328125 2.445312 12.734375 2.851562 12.734375 3.355469 L 12.734375 5.175781 C 12.734375 5.679688 12.328125 6.085938 11.824219 6.085938 L 10.003906 6.085938 C 9.5 6.085938 9.097656 5.679688 9.097656 5.175781 L 9.097656 3.355469 C 9.097656 2.851562 9.5 2.445312 10.003906 2.445312 Z M 10.003906 2.445312 "/>
<path style=" stroke:none;fill-rule:nonzero;fill:rgb(74.117649%,74.117649%,74.117649%);fill-opacity:1;" d="M 0.910156 3.355469 L 7.730469 3.355469 L 7.730469 5.175781 L 0.910156 5.175781 Z M 0.910156 3.355469 "/>
<path style=" stroke:none;fill-rule:nonzero;fill:rgb(74.117649%,74.117649%,74.117649%);fill-opacity:1;" d="M 14.097656 3.355469 L 20.921875 3.355469 L 20.921875 5.175781 L 14.097656 5.175781 Z M 14.097656 3.355469 "/>
</g>
</svg>

<svg xmlns="http://www.w3.org/2000/svg" width="22pt" height="22pt" viewBox="0 0 22 22"><path d="M14.152 10.633a.453.453 0 0 0-.453-.453H8.242a.454.454 0 0 0-.398.672l2.726 3.191c.285.34.516.34.801 0l2.727-3.191a.433.433 0 0 0 .054-.22zm0 0" fill-rule="evenodd" fill="#66bb6a"/><path d="M2.273 14.727A1.36 1.36 0 0 0 .91 16.09v3.637c0 .757.61 1.367 1.363 1.367h3.641c.754 0 1.363-.61 1.363-1.367V16.09a1.36 1.36 0 0 0-1.363-1.363zm.91 1.363h1.82c.505 0 .911.406.911.91v1.82a.905.905 0 0 1-.91.907h-1.82a.905.905 0 0 1-.91-.907V17c0-.504.406-.91.91-.91zm0 0M15.918 14.727c-.758 0-1.363.605-1.363 1.363v3.637a1.36 1.36 0 0 0 1.363 1.367h3.637c.758 0 1.367-.61 1.367-1.367V16.09a1.36 1.36 0 0 0-1.367-1.363zm.91 1.363h1.82c.504 0 .907.406.907.91v1.82a.902.902 0 0 1-.907.907h-1.82a.905.905 0 0 1-.91-.907V17c0-.504.406-.91.91-.91zm0 0" fill="#bdbdbd"/><path d="M7.277 17v1.82h1.82V17zm5.457 0v1.82h1.82V17zm0 0M9.098 1.082c-.758 0-1.368.61-1.368 1.363v3.64c0 .755.61 1.364 1.368 1.364h3.636c.754 0 1.364-.61 1.364-1.363v-3.64c0-.755-.61-1.364-1.364-1.364zm.906 1.363h1.82c.504 0 .91.407.91.91v1.82c0 .505-.406.91-.91.91h-1.82a.905.905 0 0 1-.906-.91v-1.82c0-.503.402-.91.906-.91zm0 0M.91 3.355h6.82v1.82H.91zm0 0" fill="#bdbdbd"/><path d="M14.098 3.355h6.824v1.82h-6.824zm0 0" fill="#bdbdbd"/></svg>
